app/assets/images/favicon.svg

<svg width="166" height="144" viewBox="0 0 166 144" fill="none" xmlns="http://www.w3.org/2000/svg">
<path fill-rule="evenodd" clip-rule="evenodd" d="M37.2252 56.6366C37.2252 32.1958 57.8561 12.1723 82.3527 12.1723C106.849 12.1723 127.48 32.1958 127.48 56.6366C127.48 67.828 123.989 77.7213 117.768 85.6602L82.3527 128.378L66.9619 109.814C64.8167 107.226 60.9799 106.867 58.3922 109.013C55.8046 111.158 55.4459 114.995 57.5912 117.582L77.6673 141.798C78.8236 143.193 80.541 144 82.3527 144C84.1643 144 85.8818 143.193 87.038 141.798L112.288 111.342C112.686 112.419 113.143 113.464 113.658 114.479C115.995 118.94 119.147 122.446 123.113 124.996C127.078 127.474 131.505 128.714 136.391 128.714C139.72 128.714 142.871 128.005 145.846 126.589C148.891 125.102 151.299 123.331 153.07 121.278C153.14 123.119 153.742 124.641 154.875 125.845C156.079 127.049 157.602 127.651 159.443 127.651C161.285 127.651 162.807 127.049 164.011 125.845C165.215 124.571 165.817 123.013 165.817 121.171V76.2357C165.817 74.3235 165.215 72.7655 164.011 71.5616C162.807 70.3576 161.285 69.7556 159.443 69.7556C157.602 69.7556 156.079 70.393 154.875 71.6678C153.672 72.8717 153.07 74.3944 153.07 76.2357V76.3419C151.016 74.4298 148.502 72.8717 145.527 71.6678C143.232 70.684 140.81 70.0798 138.261 69.8552C139.18 65.6139 139.652 61.194 139.652 56.6366C139.652 25.241 113.337 0 82.3527 0C51.3681 0 25.0529 25.241 25.0529 56.6366C25.0529 59.9979 27.7777 62.7228 31.139 62.7228C34.5003 62.7228 37.2252 59.9979 37.2252 56.6366ZM122.475 99.2878C122.475 99.2091 122.475 99.1307 122.476 99.0525L127.19 93.3664C127.224 93.326 127.257 93.2852 127.289 93.244C130.055 89.726 132.388 85.9181 134.255 81.8678C135.43 81.5833 136.673 81.441 137.985 81.441C142.588 81.441 146.342 83.1407 149.245 86.5401C152.149 89.9395 153.601 94.1887 153.601 99.2878C153.601 104.387 152.149 108.636 149.245 112.035C146.342 115.364 142.588 117.028 137.985 117.028C133.381 117.028 129.628 115.364 126.724 112.035C123.892 108.636 122.475 104.387 122.475 99.2878Z" fill="#6E84FE"/>
<path fill-rule="evenodd" clip-rule="evenodd" d="M52.1593 102.05C53.434 100.987 54.1068 99.6064 54.1776 97.9068C54.1776 92.8785 52.9383 88.2044 50.4596 83.8843C47.9809 79.5643 44.6523 76.1295 40.4739 73.5799C36.3663 71.0304 31.9754 69.7556 27.3013 69.7556C22.5563 69.7556 18.0946 70.995 13.9162 73.4737C9.73781 75.8816 6.37384 79.3872 3.8243 83.9905C1.27477 88.5939 0 93.9408 0 100.031C0 105.485 1.20395 110.407 3.61184 114.797C6.01974 119.117 9.41912 122.517 13.81 124.996C18.2717 127.474 23.477 128.714 29.4259 128.714C32.8253 128.714 36.1892 128.147 39.5178 127.014C42.8464 125.881 45.5021 124.5 47.4851 122.871C49.4681 121.313 50.4596 119.578 50.4596 117.666C50.4596 116.249 49.9284 115.01 48.8661 113.948C47.8038 112.885 46.529 112.354 45.0418 112.354C43.9087 112.354 42.7047 112.673 41.43 113.31C41.0759 113.523 40.4031 113.948 39.4116 114.585C38.4909 115.152 37.2161 115.718 35.5873 116.285C33.9584 116.78 31.6922 117.028 28.7885 117.028C24.9642 117.028 21.5294 115.86 18.4841 113.523C15.4389 111.115 13.4913 107.822 12.6415 103.643H47.6976C49.3973 103.643 50.8845 103.112 52.1593 102.05ZM12.7477 93.0201C14.2349 85.3007 19.0861 81.441 27.3013 81.441C30.6298 81.441 33.6043 82.5033 36.2247 84.6279C38.845 86.7525 40.2968 89.3021 40.5801 92.2765V93.0201H12.7477Z" fill="#6E84FE"/>
</svg>

<svg width="166" height="144" fill="none" xmlns="http://www.w3.org/2000/svg"><path fill-rule="evenodd" clip-rule="evenodd" d="M37.225 56.637c0-24.441 20.631-44.465 45.128-44.465 24.496 0 45.127 20.024 45.127 44.465 0 11.191-3.491 21.084-9.712 29.023l-35.415 42.718-15.391-18.564a6.085 6.085 0 00-8.57-.801 6.085 6.085 0 00-.8 8.569l20.075 24.216a6.085 6.085 0 009.371 0l25.25-30.456a29.607 29.607 0 001.37 3.137c2.337 4.461 5.489 7.967 9.455 10.517 3.965 2.478 8.392 3.718 13.278 3.718 3.329 0 6.48-.709 9.455-2.125 3.045-1.487 5.453-3.258 7.224-5.311.07 1.841.672 3.363 1.805 4.567 1.204 1.204 2.727 1.806 4.568 1.806 1.842 0 3.364-.602 4.568-1.806 1.204-1.274 1.806-2.832 1.806-4.674V76.236c0-1.913-.602-3.47-1.806-4.674-1.204-1.204-2.726-1.806-4.568-1.806-1.841 0-3.364.637-4.568 1.912-1.203 1.204-1.805 2.726-1.805 4.568v.106c-2.054-1.912-4.568-3.47-7.543-4.674a23.571 23.571 0 00-7.266-1.813 62.35 62.35 0 001.391-13.218C139.652 25.24 113.337 0 82.352 0c-30.984 0-57.3 25.241-57.3 56.637a6.086 6.086 0 1012.173 0zm85.25 42.65l.001-.235 4.714-5.686a56.975 56.975 0 007.065-11.499 15.803 15.803 0 013.73-.426c4.603 0 8.357 1.7 11.26 5.1 2.904 3.398 4.356 7.648 4.356 12.747s-1.452 9.348-4.356 12.747c-2.903 3.329-6.657 4.993-11.26 4.993-4.604 0-8.357-1.664-11.261-4.993-2.832-3.399-4.249-7.648-4.249-12.747z" fill="#6E84FE"/><path fill-rule="evenodd" clip-rule="evenodd" d="M52.16 102.05c1.274-1.063 1.947-2.444 2.018-4.143 0-5.028-1.24-9.703-3.718-14.023-2.48-4.32-5.808-7.755-9.986-10.304-4.108-2.55-8.499-3.824-13.173-3.824-4.745 0-9.206 1.239-13.385 3.718-4.178 2.408-7.542 5.913-10.092 10.516C1.274 88.594 0 93.94 0 100.031c0 5.454 1.204 10.376 3.612 14.766 2.408 4.32 5.807 7.72 10.198 10.199 4.462 2.478 9.667 3.718 15.616 3.718 3.4 0 6.763-.567 10.092-1.7 3.328-1.133 5.984-2.514 7.967-4.143 1.983-1.558 2.975-3.293 2.975-5.205 0-1.417-.532-2.656-1.594-3.718-1.062-1.063-2.337-1.594-3.824-1.594-1.133 0-2.337.319-3.612.956-.354.213-1.027.638-2.018 1.275-.921.567-2.196 1.133-3.825 1.7-1.629.495-3.895.743-6.799.743-3.824 0-7.259-1.168-10.304-3.505-3.045-2.408-4.993-5.701-5.843-9.88h35.057c1.7 0 3.187-.531 4.461-1.593zm-39.412-9.03c1.487-7.72 6.338-11.579 14.553-11.579 3.329 0 6.303 1.062 8.924 3.187 2.62 2.124 4.072 4.674 4.355 7.648v.744H12.748z" fill="#6E84FE"/></svg>
